X:13871
T:Rachel Ray Single Reel. BF13.022
M:2/2
L:1/8
Q:200
S:J.Lishman()MS,c1825,Lakes,Browne Coll.
R:Reel
O:England
A:Lakes
N:The suffix to the title begs the question, what then was a double
N:reel. CGP
Z:vmp.Cherri Graebe.
K:D Major
F/2E/2|D2FAd2Ac|d2fde2cA|d2Ad BAGF|GBAG FDD:|!
|:"crot"A|d2dg fafd|g2bge2cA|d2dg fafd|Agfe fddA|!
d2dg fafd|gbfa e2cA|d2Ad BAGF|GBAG FDD:||
